img/company/henco.svg

<svg width="159" height="44" viewBox="0 0 159 44" fill="none" xmlns="http://www.w3.org/2000/svg">
<path fill-rule="evenodd" clip-rule="evenodd" d="M136.805 0H22.1949C9.9233 0 0 9.82323 0 21.8122C0 33.8785 9.9233 43.6244 22.1949 43.6244H136.805C149.001 43.6244 159 33.8012 159 21.8122C159 9.82323 149.001 0 136.805 0ZM136.805 40.7625H22.1949C11.5898 40.7625 2.95426 32.2542 2.95426 21.8122C2.95426 11.3702 11.5898 2.86188 22.1949 2.86188H136.805C147.41 2.86188 156.046 11.3702 156.046 21.8122C156.046 32.2542 147.41 40.7625 136.805 40.7625Z" fill="#24242E"/>
<path fill-rule="evenodd" clip-rule="evenodd" d="M131.2 16.7845C129.609 16.7845 128.246 19.8785 128.246 24.9835C128.246 26.5304 128.7 27.2266 129.609 27.2266C131.276 27.2266 132.563 24.3647 132.563 19.4144C132.639 17.6354 132.26 16.7845 131.2 16.7845Z" fill="#24242E"/>
<path fill-rule="evenodd" clip-rule="evenodd" d="M136.805 5.33691H22.1949C12.9534 5.33691 5.4541 12.7623 5.4541 21.8121C5.4541 30.9392 12.9534 38.2873 22.1949 38.2873H136.805C146.047 38.2873 153.546 30.8618 153.546 21.8121C153.546 12.7623 146.047 5.33691 136.805 5.33691ZM22.1949 33.4917C15.6804 33.4917 10.3779 28.232 10.3779 21.8121C10.3779 15.3922 15.6804 10.1325 22.1949 10.1325C28.7095 10.1325 34.012 15.3922 34.012 21.8121C34.012 28.232 28.7095 33.4917 22.1949 33.4917ZM57.2673 16.3977C56.7371 16.6298 56.5098 16.4751 56.3583 17.0938C56.0553 18.4861 55.7523 20.2651 55.5251 22.2762C55.2221 24.5966 55.1463 25.9889 55.1463 26.3756C55.1463 26.9171 55.2221 27.1491 55.5251 27.3812C55.9038 27.6132 56.3583 27.6905 56.3583 28.3093C56.3583 29.5469 54.9191 30.011 51.8891 30.011C49.5408 30.011 48.4046 29.5469 48.4046 28.6187C48.4046 27.9999 48.7076 27.7679 49.3136 27.5359C49.8438 27.3038 49.9196 27.0718 50.0711 25.6021L50.2226 24.674C50.2983 24.3646 50.2983 24.2099 50.2983 23.9778C50.2983 23.3591 49.9953 23.2817 49.0863 23.2817H48.5561H47.9501C47.1168 23.2817 47.1168 23.3591 46.9653 24.3646L46.8895 25.5248C46.8138 26.1436 46.8138 26.685 46.8138 27.1491C46.8138 27.6905 47.041 27.6132 47.2683 27.7679C47.5713 27.9226 47.7228 28.1546 47.7228 28.5414C47.7228 29.7016 46.3593 30.1657 43.6323 30.1657C41.1325 30.1657 39.9205 29.779 39.9205 28.6961C39.9205 28.232 40.1478 27.9226 40.375 27.7679C40.7538 27.5359 41.2083 27.4585 41.284 27.0718C41.4355 26.6077 41.7385 24.9834 42.1173 22.2762C42.496 19.4143 42.5718 17.8673 42.5718 17.6353C42.5718 17.1712 42.496 17.0938 42.0415 16.9391C41.587 16.7071 41.3598 16.3977 41.3598 15.9336C41.3598 14.7734 42.799 14.3093 45.7533 14.3093C48.1016 14.3093 49.2378 14.696 49.2378 15.7789C49.2378 16.3204 48.9348 16.4751 48.4803 16.7071C47.8743 17.0165 47.8743 17.3259 47.7228 18.4088L47.5713 19.4916C47.4955 19.8784 47.4955 20.1104 47.4955 20.2651C47.4955 20.6519 47.8743 20.6519 48.8591 20.6519H49.1621H49.4651C50.8286 20.6519 50.8286 20.5745 50.9801 19.4143L51.1316 18.4088C51.2073 17.9447 51.2073 17.6353 51.2073 17.4806C51.2073 17.0938 51.0558 17.0165 50.7528 16.7845C50.3741 16.5524 50.1468 16.3204 50.1468 15.8563C50.1468 14.696 51.5103 14.3093 54.3131 14.3093C56.6613 14.3093 57.7976 14.6187 57.7976 15.7016C57.6461 15.9336 57.4946 16.3204 57.2673 16.3977ZM70.0692 20.5745C70.7509 20.5745 71.1297 20.4198 71.2812 19.9557C71.5842 19.1822 71.5842 18.4861 72.4174 18.4861C73.3264 18.4861 73.7809 19.4143 73.7809 21.116C73.7809 23.6684 73.0234 25.2154 71.8872 25.2154C71.1297 25.2154 70.9782 24.906 70.9782 24.2099C70.9024 23.127 70.9024 22.895 69.7662 22.895C68.9329 22.895 69.0087 23.0497 68.9329 23.9005V25.6021C68.9329 26.0662 68.9329 26.2983 68.9329 26.3756C68.9329 26.9171 69.1602 27.0718 69.9177 27.0718C70.1449 27.0718 70.3722 27.0718 70.5994 27.0718C70.7509 27.0718 70.8267 27.0718 70.9782 27.0718C72.3417 27.0718 72.8719 26.9171 73.6294 25.8342C74.2354 24.906 74.5384 24.2872 75.2202 24.2872C75.9019 24.2872 76.5079 24.9834 76.5079 26.0662C76.5079 28.1546 75.2202 30.0883 74.1597 30.0883C73.8567 30.0883 73.0992 29.779 71.5084 29.779C67.1906 29.779 64.4636 30.011 63.4031 30.011C62.1911 30.011 61.5851 29.4696 61.5851 28.6187C61.5851 27.4585 62.8729 27.3812 63.2516 26.8397C63.4789 26.5303 63.7061 25.4475 64.0091 23.5137C64.6151 20.1878 64.6909 18.0994 64.6909 17.5579C64.6909 16.9391 64.6151 16.7845 64.2364 16.5524C63.8576 16.3204 63.4789 16.243 63.4789 15.6242C63.4789 14.3867 64.1606 13.9999 65.6756 13.9999C66.7361 13.9999 68.4027 14.1546 70.6752 14.1546C72.1902 14.1546 73.1749 14.1546 73.6294 14.0773C74.0839 13.9999 74.4627 13.8452 74.7657 13.8452C75.5989 13.8452 76.7352 15.3148 76.7352 17.1712C76.7352 18.2541 76.2049 18.9502 75.4474 18.9502C74.5384 18.9502 74.3869 18.022 73.9324 17.3259C73.7052 16.9391 72.9477 16.7071 71.5842 16.7071C70.5237 16.7071 69.9934 16.7845 69.8419 17.1712C69.6147 17.7126 69.4632 18.9502 69.4632 19.801C69.3874 20.4972 69.5389 20.5745 70.0692 20.5745ZM98.2483 16.6298C97.9453 16.7071 97.718 16.7845 97.6423 17.0165C97.5665 17.2485 97.3393 18.1767 97.112 19.569C96.6575 22.7403 96.4303 25.3701 95.9 27.5359C95.4455 29.3149 94.9153 30.1657 93.8548 30.1657C93.173 30.1657 92.4913 29.779 91.961 29.1602C90.9763 27.9999 89.84 25.8342 88.022 22.9723L87.2645 21.7347C87.113 21.5027 87.0372 21.4253 86.8857 21.4253C86.7342 21.4253 86.6585 21.58 86.5827 21.8894L86.3555 23.3591C86.1282 24.7513 86.0525 25.8342 86.0525 26.3756C86.0525 26.9944 86.1282 27.2265 86.5827 27.5359C87.113 27.8452 87.5675 27.9999 87.5675 28.7734C87.5675 29.6243 86.507 30.0883 84.386 30.0883C82.0377 30.0883 80.9015 29.6243 80.9015 28.6187C80.9015 28.232 81.053 27.9999 81.4317 27.7679C81.7347 27.5359 82.3407 27.5359 82.4922 27.1491C82.6437 26.8397 83.0225 25.8342 83.3255 24.1325C84.0072 20.4198 84.1587 18.1767 84.1587 17.79C84.1587 17.0938 84.0072 16.9391 83.4012 16.7845C82.7195 16.5524 82.4165 16.3204 82.4165 15.7789C82.4165 14.6187 83.8557 14.232 86.81 14.232C88.7037 14.232 89.537 15.3148 91.1278 17.79L92.567 20.0331C93.2488 21.116 93.5518 21.8121 93.8548 21.8121C94.0063 21.8121 94.1578 21.58 94.1578 21.1933L94.3093 19.7237C94.385 18.8729 94.385 18.1767 94.385 17.6353C94.385 17.0165 94.3093 16.8618 93.8548 16.7071C93.2488 16.4751 92.7185 16.3977 92.7185 15.6242C92.7185 14.6187 93.9305 14.1546 96.2788 14.1546C98.4755 14.1546 99.4603 14.464 99.4603 15.5469C99.3088 16.1657 98.93 16.3977 98.2483 16.6298ZM115.671 20.0331C114.989 20.0331 114.459 19.6463 113.929 18.7955C113.398 17.8673 113.171 17.0165 112.186 17.0165C110.596 17.0165 109.081 19.4916 109.081 23.2044C109.081 25.2928 109.838 26.3756 111.202 26.3756C112.035 26.3756 112.792 25.9115 113.626 25.0607C114.459 24.2099 114.838 23.4364 115.595 23.4364C116.201 23.4364 116.731 24.0552 116.731 25.1381C116.731 25.8342 116.504 26.5303 116.125 27.3038C115.595 28.1546 114.989 28.6187 114.762 28.6187C114.61 28.6187 114.459 28.5414 114.383 28.5414C114.156 28.5414 113.777 28.9281 113.095 29.3149C111.959 29.9337 110.671 30.243 109.308 30.243C105.52 30.243 103.172 27.6906 103.172 23.9778C103.172 21.5027 104.005 19.1822 105.596 17.1712C107.338 15.0054 109.535 13.8452 111.732 13.8452C113.55 13.8452 114.535 14.464 114.686 14.464C114.838 14.464 114.989 14.1546 115.292 14.1546C116.125 14.1546 117.489 15.7789 117.489 17.6353C117.489 19.1049 116.656 20.0331 115.671 20.0331ZM136.351 26.7624C134.608 29.0828 132.033 30.243 129.003 30.243C124.761 30.243 122.413 27.9226 122.413 23.6684C122.413 21.5027 123.17 19.2596 124.609 17.4806C126.427 15.1601 129.079 13.8452 132.033 13.8452C135.972 13.8452 138.472 16.243 138.472 20.1878C138.472 22.6629 137.638 25.0607 136.351 26.7624Z" fill="#24242E"/>
<path fill-rule="evenodd" clip-rule="evenodd" d="M22.1947 12.1434C16.7407 12.1434 12.3472 16.4749 12.3472 21.812C12.3472 27.149 16.7407 31.4805 22.1947 31.4805C27.6487 31.4805 32.0423 27.149 32.0423 21.812C32.0423 16.4749 27.573 12.1434 22.1947 12.1434Z" fill="#24242E"/>
</svg>

<svg width="159" height="44" fill="none" xmlns="http://www.w3.org/2000/svg"><path fill-rule="evenodd" clip-rule="evenodd" d="M136.805 0H22.195C9.923 0 0 9.823 0 21.812 0 33.88 9.923 43.624 22.195 43.624h114.61c12.196 0 22.195-9.823 22.195-21.812S149.001 0 136.805 0zm0 40.763H22.195c-10.605 0-19.24-8.509-19.24-18.95 0-10.443 8.635-18.951 19.24-18.951h114.61c10.605 0 19.241 8.508 19.241 18.95s-8.636 18.95-19.241 18.95z" fill="#24242E"/><path fill-rule="evenodd" clip-rule="evenodd" d="M131.2 16.785c-1.591 0-2.954 3.093-2.954 8.198 0 1.547.454 2.244 1.363 2.244 1.667 0 2.954-2.862 2.954-7.813.076-1.779-.303-2.63-1.363-2.63z" fill="#24242E"/><path fill-rule="evenodd" clip-rule="evenodd" d="M136.805 5.337H22.195c-9.242 0-16.74 7.425-16.74 16.475 0 9.127 7.498 16.475 16.74 16.475h114.61c9.242 0 16.741-7.425 16.741-16.475s-7.499-16.475-16.741-16.475zM22.195 33.492c-6.515 0-11.817-5.26-11.817-11.68s5.302-11.68 11.817-11.68c6.514 0 11.817 5.26 11.817 11.68s-5.303 11.68-11.817 11.68zm35.072-17.094c-.53.232-.757.077-.909.696a52.71 52.71 0 0 0-.833 5.182c-.303 2.32-.379 3.713-.379 4.1 0 .541.076.773.38 1.005.378.232.832.31.832.928 0 1.238-1.439 1.702-4.469 1.702-2.348 0-3.484-.464-3.484-1.392 0-.62.303-.851.909-1.083.53-.232.606-.464.757-1.934l.152-.928c.075-.31.075-.464.075-.696 0-.619-.303-.696-1.212-.696H47.95c-.833 0-.833.077-.985 1.083l-.076 1.16c-.075.619-.075 1.16-.075 1.624 0 .541.227.464.454.619.303.155.455.387.455.773 0 1.16-1.364 1.625-4.09 1.625-2.5 0-3.713-.387-3.713-1.47 0-.464.228-.773.455-.928.379-.232.833-.31.909-.696.151-.464.455-2.089.833-4.796.379-2.862.455-4.409.455-4.64 0-.465-.076-.542-.53-.697-.455-.232-.682-.541-.682-1.005 0-1.16 1.439-1.625 4.393-1.625 2.349 0 3.485.387 3.485 1.47 0 .541-.303.696-.758.928-.606.31-.606.619-.757 1.702l-.152 1.083c-.075.386-.075.618-.075.773 0 .387.378.387 1.363.387h.606c1.364 0 1.364-.078 1.515-1.238l.152-1.005c.075-.464.075-.774.075-.928 0-.387-.151-.465-.454-.697-.379-.232-.606-.464-.606-.928 0-1.16 1.363-1.547 4.166-1.547 2.348 0 3.485.31 3.485 1.393-.152.232-.303.618-.53.696zm12.802 4.177c.682 0 1.06-.155 1.212-.62.303-.773.303-1.469 1.136-1.469.91 0 1.364.928 1.364 2.63 0 2.552-.758 4.1-1.894 4.1-.757 0-.909-.31-.909-1.006-.076-1.083-.076-1.315-1.212-1.315-.833 0-.757.155-.833 1.006v2.475c0 .541.227.696.985.696h1.061c1.363 0 1.893-.155 2.65-1.238.606-.928.91-1.547 1.591-1.547.682 0 1.288.696 1.288 1.78 0 2.088-1.288 4.021-2.348 4.021-.303 0-1.06-.309-2.652-.309-4.317 0-7.044.232-8.105.232-1.212 0-1.818-.541-1.818-1.392 0-1.16 1.288-1.238 1.667-1.78.227-.309.454-1.391.757-3.325.606-3.326.682-5.415.682-5.956 0-.619-.076-.773-.455-1.006-.378-.232-.757-.309-.757-.928 0-1.237.682-1.624 2.197-1.624 1.06 0 2.727.155 5 .155 1.514 0 2.499 0 2.953-.078.455-.077.834-.232 1.137-.232.833 0 1.97 1.47 1.97 3.326 0 1.083-.531 1.78-1.289 1.78-.909 0-1.06-.929-1.515-1.625-.227-.387-.984-.619-2.348-.619-1.06 0-1.59.078-1.742.464-.227.542-.379 1.78-.379 2.63-.076.696.076.774.606.774zm28.18-3.945c-.304.077-.531.155-.607.387-.075.232-.303 1.16-.53 2.552-.454 3.171-.682 5.801-1.212 7.967-.455 1.779-.985 2.63-2.045 2.63-.682 0-1.364-.387-1.894-1.006-.985-1.16-2.121-3.326-3.939-6.188l-.758-1.237c-.151-.232-.227-.31-.378-.31-.152 0-.227.155-.303.464l-.227 1.47c-.228 1.392-.303 2.475-.303 3.017 0 .618.075.85.53 1.16.53.31.984.464.984 1.237 0 .851-1.06 1.315-3.181 1.315-2.348 0-3.484-.464-3.484-1.47 0-.386.151-.618.53-.85.303-.232.909-.232 1.06-.619.152-.31.53-1.315.834-3.017.681-3.712.833-5.955.833-6.342 0-.696-.152-.85-.758-1.005-.681-.233-.984-.465-.984-1.006 0-1.16 1.439-1.547 4.393-1.547 1.894 0 2.727 1.083 4.318 3.558l1.439 2.243c.682 1.083.985 1.78 1.288 1.78.151 0 .303-.233.303-.62l.151-1.47c.076-.85.076-1.546.076-2.088 0-.619-.076-.773-.53-.928-.606-.232-1.136-.31-1.136-1.083 0-1.005 1.212-1.47 3.56-1.47 2.197 0 3.181.31 3.181 1.393-.151.619-.53.85-1.212 1.083zm17.422 3.403c-.682 0-1.212-.387-1.742-1.238-.531-.928-.758-1.779-1.743-1.779-1.59 0-3.105 2.476-3.105 6.188 0 2.089.757 3.172 2.121 3.172.833 0 1.59-.465 2.424-1.315.833-.851 1.212-1.625 1.969-1.625.606 0 1.136.62 1.136 1.702 0 .696-.227 1.392-.606 2.166-.53.85-1.136 1.315-1.363 1.315-.152 0-.303-.078-.379-.078-.227 0-.606.387-1.288.774-1.136.619-2.424.928-3.787.928-3.788 0-6.136-2.552-6.136-6.265 0-2.475.833-4.796 2.424-6.807 1.742-2.166 3.939-3.326 6.136-3.326 1.818 0 2.803.619 2.954.619.152 0 .303-.31.606-.31.833 0 2.197 1.625 2.197 3.481 0 1.47-.833 2.398-1.818 2.398zm20.68 6.73c-1.743 2.32-4.318 3.48-7.348 3.48-4.242 0-6.59-2.32-6.59-6.575a9.95 9.95 0 0 1 2.196-6.187c1.818-2.32 4.47-3.636 7.424-3.636 3.939 0 6.439 2.398 6.439 6.343 0 2.475-.834 4.873-2.121 6.574z" fill="#24242E"/><path fill-rule="evenodd" clip-rule="evenodd" d="M22.195 12.143c-5.454 0-9.848 4.332-9.848 9.669 0 5.337 4.394 9.668 9.848 9.668 5.454 0 9.847-4.331 9.847-9.668 0-5.337-4.469-9.669-9.847-9.669z" fill="#24242E"/></svg>
